ModelicaByExample/Architectures/SensorComparison/Interfaces/Sensor.svg

<?xml version="1.0" encoding="UTF-8"?>
<svg xmlns="http://www.w3.org/2000/svg" xmlns:xlink="http://www.w3.org/1999/xlink" width="964.58086pt" height="837.88091pt" viewBox="0 0 964.58086 837.88091" version="1.1">
<g id="surface1">
<path style="fill:none;stroke-width:1;stroke-linecap:square;stroke-linejoin:miter;stroke:rgb(50.196078%,100%,0%);stroke-opacity:1;stroke-miterlimit:2;" d="M -100.000031 -100.000302 L 100.000117 -100.000302 L 100.000117 99.999846 L -100.000031 99.999846 L -100.000031 -100.000302 " transform="matrix(4.069059,0,0,-4.069059,461.945137,418.940478)"/>
<path style="fill-rule:evenodd;fill:rgb(37.254902%,37.254902%,37.254902%);fill-opacity:1;stroke-width:1;stroke-linecap:square;stroke-linejoin:miter;stroke:rgb(0%,0%,0%);stroke-opacity:1;stroke-miterlimit:2;" d="M 100.001682 0.00228219 C 100.001682 55.230416 55.227822 100.004276 -0.000312266 100.004276 C -55.228446 100.004276 -100.002307 55.230416 -100.002307 0.00228219 C -100.002307 -55.225852 -55.228446 -99.999712 -0.000312266 -99.999712 C 55.227822 -99.999712 100.001682 -55.225852 100.001682 0.00228219 " transform="matrix(0.406906,0,0,0.406906,55.03919,418.940478)"/>
<path style="fill-rule:evenodd;fill:rgb(100%,100%,100%);fill-opacity:1;stroke-width:1;stroke-linecap:square;stroke-linejoin:miter;stroke:rgb(0%,0%,49.803922%);stroke-opacity:1;stroke-miterlimit:2;" d="M -99.998827 99.999712 L 99.995561 -0.00228219 L -99.998827 -100.004276 L -99.998827 99.999712 " transform="matrix(0.406906,0,0,-0.406906,909.54168,418.940478)"/>
</g>
</svg>

<?xml version="1.0" encoding="UTF-8" standalone="no"?>
<svg
   xmlns:dc="http://purl.org/dc/elements/1.1/"
   xmlns:cc="http://creativecommons.org/ns#"
   xmlns:rdf="http://www.w3.org/1999/02/22-rdf-syntax-ns#"
   xmlns:svg="http://www.w3.org/2000/svg"
   xmlns="http://www.w3.org/2000/svg"
   xmlns:sodipodi="http://sodipodi.sourceforge.net/DTD/sodipodi-0.dtd"
   xmlns:inkscape="http://www.inkscape.org/namespaces/inkscape"
   width="944.58093"
   height="817.88098"
   viewBox="508 -2 328.02028 658.27502"
   version="1.2"
   id="svg2"
   inkscape:version="0.48.4 r9939"
   sodipodi:docname="Sensor.svg">
  <metadata
     id="metadata130">
    <rdf:RDF>
      <cc:Work
         rdf:about="">
        <dc:format>image/svg+xml</dc:format>
        <dc:type
           rdf:resource="http://purl.org/dc/dcmitype/StillImage" />
      </cc:Work>
    </rdf:RDF>
  </metadata>
  <sodipodi:namedview
     pagecolor="#ffffff"
     bordercolor="#666666"
     borderopacity="1"
     objecttolerance="10"
     gridtolerance="10"
     guidetolerance="10"
     inkscape:pageopacity="0"
     inkscape:pageshadow="2"
     inkscape:window-width="640"
     inkscape:window-height="480"
     id="namedview128"
     showgrid="false"
     fit-margin-top="0"
     fit-margin-left="0"
     fit-margin-right="0"
     fit-margin-bottom="0"
     inkscape:zoom="0.15613126"
     inkscape:cx="473.06699"
     inkscape:cy="408.31925"
     inkscape:window-x="0"
     inkscape:window-y="0"
     inkscape:window-maximized="0"
     inkscape:current-layer="svg2" />
  <title
     id="title4">OMEdit - OpenModelica Connection Editor</title>
  <desc
     id="desc6">Generated by OMEdit - OpenModelica Connection Editor</desc>
  <defs
     id="defs8" />
  <g
     id="g10"
     style="fill:none;stroke:#000000;stroke-width:1;stroke-linecap:square;stroke-linejoin:bevel"
     transform="translate(-211.75719,-1.2107818)">
    <g
       font-size="11"
       font-weight="400"
       font-style="normal"
       id="g12"
       style="font-size:11px;font-style:normal;font-weight:400;fill:none;stroke:#000000;stroke-width:1;stroke-linecap:square;stroke-linejoin:bevel;stroke-opacity:1;font-family:Ubuntu" />
    <g
       font-size="11"
       font-weight="400"
       font-style="normal"
       id="g14"
       style="font-size:11px;font-style:normal;font-weight:400;fill:none;stroke:#000000;stroke-width:1;stroke-linecap:square;stroke-linejoin:bevel;stroke-opacity:1;font-family:Ubuntu" />
    <g
       font-size="11"
       font-weight="400"
       font-style="normal"
       id="g16"
       style="font-size:11px;font-style:normal;font-weight:400;fill:none;stroke:#000000;stroke-width:1;stroke-linecap:square;stroke-linejoin:bevel;stroke-opacity:1;font-family:Ubuntu" />
    <g
       transform="matrix(3.275,0,0,-3.275,868,329)"
       font-size="11"
       font-weight="400"
       font-style="normal"
       id="g18"
       style="font-size:11px;font-style:normal;font-weight:400;fill:none;stroke:#000000;stroke-width:1;stroke-linecap:square;stroke-linejoin:bevel;stroke-opacity:1;font-family:Ubuntu" />
    <g
       stroke-miterlimit="2"
       transform="matrix(3.275,0,0,-3.275,868,329)"
       font-size="11"
       font-weight="400"
       font-style="normal"
       id="g20"
       style="font-size:11px;font-style:normal;font-weight:400;fill:none;stroke:#80ff00;stroke-width:1;stroke-linecap:square;stroke-linejoin:miter;stroke-miterlimit:2;stroke-opacity:1;font-family:Ubuntu">
      <path
         vector-effect="non-scaling-stroke"
         d="m -100,-100 200,0 0,200 -200,0 0,-200"
         id="path22"
         inkscape:connector-curvature="0" />
    </g>
    <g
       transform="matrix(3.275,0,0,-3.275,868,329)"
       font-size="11"
       font-weight="400"
       font-style="normal"
       id="g24"
       style="font-size:11px;font-style:normal;font-weight:400;fill:none;stroke:#000000;stroke-width:1;stroke-linecap:square;stroke-linejoin:bevel;stroke-opacity:1;font-family:Ubuntu" />
    <g
       transform="matrix(0.3275,0,0,-0.3275,540.5,329)"
       font-size="11"
       font-weight="400"
       font-style="normal"
       id="g26"
       style="font-size:11px;font-style:normal;font-weight:400;fill:none;stroke:#000000;stroke-width:1;stroke-linecap:square;stroke-linejoin:bevel;stroke-opacity:1;font-family:Ubuntu" />
    <g
       transform="matrix(0.3275,0,0,-0.3275,540.5,329)"
       font-size="11"
       font-weight="400"
       font-style="normal"
       id="g28"
       style="font-size:11px;font-style:normal;font-weight:400;fill:none;stroke:#000000;stroke-width:1;stroke-linecap:square;stroke-linejoin:bevel;stroke-opacity:1;font-family:Ubuntu" />
    <g
       transform="matrix(0.3275,0,0,-0.3275,540.5,329)"
       font-size="11"
       font-weight="400"
       font-style="normal"
       id="g30"
       style="font-size:11px;font-style:normal;font-weight:400;fill:none;stroke:#000000;stroke-width:1;stroke-linecap:square;stroke-linejoin:bevel;stroke-opacity:1;font-family:Ubuntu" />
    <g
       stroke-miterlimit="2"
       transform="matrix(0.3275,0,0,0.3275,540.5,329)"
       font-size="11"
       font-weight="400"
       font-style="normal"
       id="g32"
       style="font-size:11px;font-style:normal;font-weight:400;fill:#5f5f5f;fill-opacity:1;stroke:#000000;stroke-width:1;stroke-linecap:square;stroke-linejoin:miter;stroke-miterlimit:2;stroke-opacity:1;font-family:Ubuntu">
      <path
         vector-effect="non-scaling-stroke"
         d="M 100,0 C 100,55.2285 55.2285,100 0,100 -55.2285,100 -100,55.2285 -100,0 c 0,-55.2285 44.7715,-100 100,-100 55.2285,0 100,44.7715 100,100"
         id="path34"
         inkscape:connector-curvature="0"
         style="fill-rule:evenodd" />
    </g>
    <g
       transform="matrix(0.3275,0,0,-0.3275,540.5,329)"
       font-size="11"
       font-weight="400"
       font-style="normal"
       id="g36"
       style="font-size:11px;font-style:normal;font-weight:400;fill:none;stroke:#000000;stroke-width:1;stroke-linecap:square;stroke-linejoin:bevel;stroke-opacity:1;font-family:Ubuntu" />
    <g
       transform="translate(507.75,361.75)"
       font-size="11"
       font-weight="400"
       font-style="normal"
       id="g38"
       style="font-size:11px;font-style:normal;font-weight:400;fill:none;stroke:#000000;stroke-width:1;stroke-linecap:square;stroke-linejoin:bevel;stroke-opacity:1;font-family:Ubuntu" />
    <g
       transform="translate(507.75,361.75)"
       font-size="11"
       font-weight="400"
       font-style="normal"
       id="g40"
       style="font-size:11px;font-style:normal;font-weight:400;fill:#000000;fill-opacity:0;stroke:#000000;stroke-width:1;stroke-linecap:square;stroke-linejoin:bevel;stroke-opacity:0;font-family:Ubuntu">
      <path
         vector-effect="non-scaling-stroke"
         d="m -3,-3 6,0 0,6 -6,0 0,-6"
         id="path42"
         inkscape:connector-curvature="0"
         style="fill-rule:evenodd" />
    </g>
    <g
       transform="translate(507.75,361.75)"
       font-size="11"
       font-weight="400"
       font-style="normal"
       id="g44"
       style="font-size:11px;font-style:normal;font-weight:400;fill:none;stroke:#000000;stroke-width:1;stroke-linecap:square;stroke-linejoin:bevel;stroke-opacity:1;font-family:Ubuntu" />
    <g
       transform="translate(507.75,296.25)"
       font-size="11"
       font-weight="400"
       font-style="normal"
       id="g46"
       style="font-size:11px;font-style:normal;font-weight:400;fill:none;stroke:#000000;stroke-width:1;stroke-linecap:square;stroke-linejoin:bevel;stroke-opacity:1;font-family:Ubuntu" />
    <g
       transform="translate(507.75,296.25)"
       font-size="11"
       font-weight="400"
       font-style="normal"
       id="g48"
       style="font-size:11px;font-style:normal;font-weight:400;fill:#000000;fill-opacity:0;stroke:#000000;stroke-width:1;stroke-linecap:square;stroke-linejoin:bevel;stroke-opacity:0;font-family:Ubuntu">
      <path
         vector-effect="non-scaling-stroke"
         d="m -3,-3 6,0 0,6 -6,0 0,-6"
         id="path50"
         inkscape:connector-curvature="0"
         style="fill-rule:evenodd" />
    </g>
    <g
       transform="translate(507.75,296.25)"
       font-size="11"
       font-weight="400"
       font-style="normal"
       id="g52"
       style="font-size:11px;font-style:normal;font-weight:400;fill:none;stroke:#000000;stroke-width:1;stroke-linecap:square;stroke-linejoin:bevel;stroke-opacity:1;font-family:Ubuntu" />
    <g
       transform="translate(573.25,296.25)"
       font-size="11"
       font-weight="400"
       font-style="normal"
       id="g54"
       style="font-size:11px;font-style:normal;font-weight:400;fill:none;stroke:#000000;stroke-width:1;stroke-linecap:square;stroke-linejoin:bevel;stroke-opacity:1;font-family:Ubuntu" />
    <g
       transform="translate(573.25,296.25)"
       font-size="11"
       font-weight="400"
       font-style="normal"
       id="g56"
       style="font-size:11px;font-style:normal;font-weight:400;fill:#000000;fill-opacity:0;stroke:#000000;stroke-width:1;stroke-linecap:square;stroke-linejoin:bevel;stroke-opacity:0;font-family:Ubuntu">
      <path
         vector-effect="non-scaling-stroke"
         d="m -3,-3 6,0 0,6 -6,0 0,-6"
         id="path58"
         inkscape:connector-curvature="0"
         style="fill-rule:evenodd" />
    </g>
    <g
       transform="translate(573.25,296.25)"
       font-size="11"
       font-weight="400"
       font-style="normal"
       id="g60"
       style="font-size:11px;font-style:normal;font-weight:400;fill:none;stroke:#000000;stroke-width:1;stroke-linecap:square;stroke-linejoin:bevel;stroke-opacity:1;font-family:Ubuntu" />
    <g
       transform="translate(573.25,361.75)"
       font-size="11"
       font-weight="400"
       font-style="normal"
       id="g62"
       style="font-size:11px;font-style:normal;font-weight:400;fill:none;stroke:#000000;stroke-width:1;stroke-linecap:square;stroke-linejoin:bevel;stroke-opacity:1;font-family:Ubuntu" />
    <g
       transform="translate(573.25,361.75)"
       font-size="11"
       font-weight="400"
       font-style="normal"
       id="g64"
       style="font-size:11px;font-style:normal;font-weight:400;fill:#000000;fill-opacity:0;stroke:#000000;stroke-width:1;stroke-linecap:square;stroke-linejoin:bevel;stroke-opacity:0;font-family:Ubuntu">
      <path
         vector-effect="non-scaling-stroke"
         d="m -3,-3 6,0 0,6 -6,0 0,-6"
         id="path66"
         inkscape:connector-curvature="0"
         style="fill-rule:evenodd" />
    </g>
    <g
       transform="translate(573.25,361.75)"
       font-size="11"
       font-weight="400"
       font-style="normal"
       id="g68"
       style="font-size:11px;font-style:normal;font-weight:400;fill:none;stroke:#000000;stroke-width:1;stroke-linecap:square;stroke-linejoin:bevel;stroke-opacity:1;font-family:Ubuntu" />
    <g
       transform="matrix(0.3275,0,0,-0.3275,1228.25,329)"
       font-size="11"
       font-weight="400"
       font-style="normal"
       id="g70"
       style="font-size:11px;font-style:normal;font-weight:400;fill:none;stroke:#000000;stroke-width:1;stroke-linecap:square;stroke-linejoin:bevel;stroke-opacity:1;font-family:Ubuntu" />
    <g
       transform="matrix(0.3275,0,0,-0.3275,1228.25,329)"
       font-size="11"
       font-weight="400"
       font-style="normal"
       id="g72"
       style="font-size:11px;font-style:normal;font-weight:400;fill:none;stroke:#000000;stroke-width:1;stroke-linecap:square;stroke-linejoin:bevel;stroke-opacity:1;font-family:Ubuntu" />
    <g
       transform="matrix(0.3275,0,0,-0.3275,1228.25,329)"
       font-size="11"
       font-weight="400"
       font-style="normal"
       id="g74"
       style="font-size:11px;font-style:normal;font-weight:400;fill:none;stroke:#000000;stroke-width:1;stroke-linecap:square;stroke-linejoin:bevel;stroke-opacity:1;font-family:Ubuntu" />
    <g
       stroke-miterlimit="2"
       transform="matrix(0.3275,0,0,-0.3275,1228.25,329)"
       font-size="11"
       font-weight="400"
       font-style="normal"
       id="g76"
       style="font-size:11px;font-style:normal;font-weight:400;fill:#ffffff;fill-opacity:1;stroke:#00007f;stroke-width:1;stroke-linecap:square;stroke-linejoin:miter;stroke-miterlimit:2;stroke-opacity:1;font-family:Ubuntu">
      <path
         vector-effect="non-scaling-stroke"
         d="M -100,100 100,0 l -200,-100 0,200"
         id="path78"
         inkscape:connector-curvature="0"
         style="fill-rule:evenodd" />
    </g>
    <g
       transform="matrix(0.3275,0,0,-0.3275,1228.25,329)"
       font-size="11"
       font-weight="400"
       font-style="normal"
       id="g80"
       style="font-size:11px;font-style:normal;font-weight:400;fill:none;stroke:#000000;stroke-width:1;stroke-linecap:square;stroke-linejoin:bevel;stroke-opacity:1;font-family:Ubuntu" />
    <g
       transform="translate(1195.5,361.75)"
       font-size="11"
       font-weight="400"
       font-style="normal"
       id="g82"
       style="font-size:11px;font-style:normal;font-weight:400;fill:none;stroke:#000000;stroke-width:1;stroke-linecap:square;stroke-linejoin:bevel;stroke-opacity:1;font-family:Ubuntu" />
    <g
       transform="translate(1195.5,361.75)"
       font-size="11"
       font-weight="400"
       font-style="normal"
       id="g84"
       style="font-size:11px;font-style:normal;font-weight:400;fill:#000000;fill-opacity:0;stroke:#000000;stroke-width:1;stroke-linecap:square;stroke-linejoin:bevel;stroke-opacity:0;font-family:Ubuntu">
      <path
         vector-effect="non-scaling-stroke"
         d="m -3,-3 6,0 0,6 -6,0 0,-6"
         id="path86"
         inkscape:connector-curvature="0"
         style="fill-rule:evenodd" />
    </g>
    <g
       transform="translate(1195.5,361.75)"
       font-size="11"
       font-weight="400"
       font-style="normal"
       id="g88"
       style="font-size:11px;font-style:normal;font-weight:400;fill:none;stroke:#000000;stroke-width:1;stroke-linecap:square;stroke-linejoin:bevel;stroke-opacity:1;font-family:Ubuntu" />
    <g
       transform="translate(1195.5,296.25)"
       font-size="11"
       font-weight="400"
       font-style="normal"
       id="g90"
       style="font-size:11px;font-style:normal;font-weight:400;fill:none;stroke:#000000;stroke-width:1;stroke-linecap:square;stroke-linejoin:bevel;stroke-opacity:1;font-family:Ubuntu" />
    <g
       transform="translate(1195.5,296.25)"
       font-size="11"
       font-weight="400"
       font-style="normal"
       id="g92"
       style="font-size:11px;font-style:normal;font-weight:400;fill:#000000;fill-opacity:0;stroke:#000000;stroke-width:1;stroke-linecap:square;stroke-linejoin:bevel;stroke-opacity:0;font-family:Ubuntu">
      <path
         vector-effect="non-scaling-stroke"
         d="m -3,-3 6,0 0,6 -6,0 0,-6"
         id="path94"
         inkscape:connector-curvature="0"
         style="fill-rule:evenodd" />
    </g>
    <g
       transform="translate(1195.5,296.25)"
       font-size="11"
       font-weight="400"
       font-style="normal"
       id="g96"
       style="font-size:11px;font-style:normal;font-weight:400;fill:none;stroke:#000000;stroke-width:1;stroke-linecap:square;stroke-linejoin:bevel;stroke-opacity:1;font-family:Ubuntu" />
    <g
       transform="translate(1261,296.25)"
       font-size="11"
       font-weight="400"
       font-style="normal"
       id="g98"
       style="font-size:11px;font-style:normal;font-weight:400;fill:none;stroke:#000000;stroke-width:1;stroke-linecap:square;stroke-linejoin:bevel;stroke-opacity:1;font-family:Ubuntu" />
    <g
       transform="translate(1261,296.25)"
       font-size="11"
       font-weight="400"
       font-style="normal"
       id="g100"
       style="font-size:11px;font-style:normal;font-weight:400;fill:#000000;fill-opacity:0;stroke:#000000;stroke-width:1;stroke-linecap:square;stroke-linejoin:bevel;stroke-opacity:0;font-family:Ubuntu">
      <path
         vector-effect="non-scaling-stroke"
         d="m -3,-3 6,0 0,6 -6,0 0,-6"
         id="path102"
         inkscape:connector-curvature="0"
         style="fill-rule:evenodd" />
    </g>
    <g
       transform="translate(1261,296.25)"
       font-size="11"
       font-weight="400"
       font-style="normal"
       id="g104"
       style="font-size:11px;font-style:normal;font-weight:400;fill:none;stroke:#000000;stroke-width:1;stroke-linecap:square;stroke-linejoin:bevel;stroke-opacity:1;font-family:Ubuntu" />
    <g
       transform="translate(1261,361.75)"
       font-size="11"
       font-weight="400"
       font-style="normal"
       id="g106"
       style="font-size:11px;font-style:normal;font-weight:400;fill:none;stroke:#000000;stroke-width:1;stroke-linecap:square;stroke-linejoin:bevel;stroke-opacity:1;font-family:Ubuntu" />
    <g
       transform="translate(1261,361.75)"
       font-size="11"
       font-weight="400"
       font-style="normal"
       id="g108"
       style="font-size:11px;font-style:normal;font-weight:400;fill:#000000;fill-opacity:0;stroke:#000000;stroke-width:1;stroke-linecap:square;stroke-linejoin:bevel;stroke-opacity:0;font-family:Ubuntu">
      <path
         vector-effect="non-scaling-stroke"
         d="m -3,-3 6,0 0,6 -6,0 0,-6"
         id="path110"
         inkscape:connector-curvature="0"
         style="fill-rule:evenodd" />
    </g>
    <g
       transform="translate(1261,361.75)"
       font-size="11"
       font-weight="400"
       font-style="normal"
       id="g112"
       style="font-size:11px;font-style:normal;font-weight:400;fill:none;stroke:#000000;stroke-width:1;stroke-linecap:square;stroke-linejoin:bevel;stroke-opacity:1;font-family:Ubuntu" />
    <g
       transform="matrix(3.275,0,0,-3.275,868,329)"
       font-size="11"
       font-weight="400"
       font-style="normal"
       id="g114"
       style="font-size:11px;font-style:normal;font-weight:400;fill:none;stroke:#000000;stroke-width:1;stroke-linecap:square;stroke-linejoin:bevel;stroke-opacity:1;font-family:Ubuntu" />
    <g
       transform="matrix(3.275,0,0,-3.275,868,329)"
       font-size="11"
       font-weight="400"
       font-style="normal"
       id="g116"
       style="font-size:11px;font-style:normal;font-weight:400;fill:none;stroke:#000000;stroke-width:1;stroke-linecap:square;stroke-linejoin:bevel;stroke-opacity:0;stroke-dasharray:1, 2;stroke-dashoffset:0;font-family:Ubuntu" />
    <g
       transform="matrix(3.275,0,0,-3.275,868,329)"
       font-size="11"
       font-weight="400"
       font-style="normal"
       id="g118"
       style="font-size:11px;font-style:normal;font-weight:400;fill:none;stroke:#000000;stroke-width:1;stroke-linecap:square;stroke-linejoin:bevel;stroke-opacity:1;font-family:Ubuntu" />
    <g
       transform="matrix(3.275,0,0,-3.275,868,329)"
       font-size="11"
       font-weight="400"
       font-style="normal"
       id="g120"
       style="font-size:11px;font-style:normal;font-weight:400;fill:none;stroke:#000000;stroke-width:1;stroke-linecap:square;stroke-linejoin:bevel;stroke-opacity:1;font-family:Ubuntu" />
    <g
       transform="matrix(3.275,0,0,-3.275,868,329)"
       font-size="11"
       font-weight="400"
       font-style="normal"
       id="g122"
       style="font-size:11px;font-style:normal;font-weight:400;fill:none;stroke:#000000;stroke-width:1;stroke-linecap:square;stroke-linejoin:bevel;stroke-opacity:0;stroke-dasharray:1, 2;stroke-dashoffset:0;font-family:Ubuntu" />
    <g
       transform="matrix(3.275,0,0,-3.275,868,329)"
       font-size="11"
       font-weight="400"
       font-style="normal"
       id="g124"
       style="font-size:11px;font-style:normal;font-weight:400;fill:none;stroke:#000000;stroke-width:1;stroke-linecap:square;stroke-linejoin:bevel;stroke-opacity:1;font-family:Ubuntu" />
    <g
       font-size="11"
       font-weight="400"
       font-style="normal"
       id="g126"
       style="font-size:11px;font-style:normal;font-weight:400;fill:none;stroke:#000000;stroke-width:1;stroke-linecap:square;stroke-linejoin:bevel;stroke-opacity:1;font-family:Ubuntu" />
  </g>
</svg>
